places/scalable/folder-blue-apps.svg

<svg xmlns="http://www.w3.org/2000/svg" style="isolation:isolate" width="256" height="256"><path d="M53.039 21C16.724 21 13 23.055 13 59.371v52.167h230V79.563c0-36.316-3.724-42.102-40.039-42.102h-89.336L97.198 21H53.039z" fill="#1463A5"/><path d="M53.039 70.384C16.722 70.384 13 74.114 13 110.429v84.524C13 231.269 16.722 235 53.039 235h149.922c36.317 0 40.039-3.731 40.039-40.047V93.969c0-36.316-3.722-40.047-40.039-40.047H119.53l-16.438 16.462H53.039z" fill="#37A6E6"/><linearGradient id="a" y1=".5" x2="0" y2="-.5" gradientTransform="matrix(230 0 0 181.078 13 53.922)" gradientUnits="userSpaceOnUse"><stop offset="0%" stop-opacity=".07" stop-color="#fff"/><stop offset="67.282%" stop-opacity="0" stop-color="#fcefe8"/></linearGradient><path d="M53.039 70.384C16.722 70.384 13 74.114 13 110.429v84.524C13 231.269 16.722 235 53.039 235h149.922c36.317 0 40.039-3.731 40.039-40.047V93.969c0-36.316-3.722-40.047-40.039-40.047H119.53l-16.438 16.462H53.039z" fill="url(#a)"/><g opacity=".4"><radialGradient id="b" fx=".5" fy=".136" cx=".5" cy=".5" r=".272" gradientTransform="matrix(230 0 0 60.62 13 21)" gradientUnits="userSpaceOnUse"><stop offset="0%" stop-color="#fff"/><stop offset="100%" stop-opacity=".204" stop-color="#fff"/></radialGradient><path d="M53.039 21C16.724 21 13 23.055 13 59.371v2.059c0-36.316 3.724-38.373 40.039-38.373h44.159l16.427 16.461h89.336c36.315 0 40.039 5.786 40.039 42.102v-2.057c0-36.316-3.724-42.102-40.039-42.102h-89.336L97.198 21H53.039z" fill="url(#b)"/></g><g opacity=".4"><radialGradient id="c" fx=".482" fy=".211" cx=".5" cy=".5" r=".272" gradientTransform="matrix(230 0 0 58.565 13 53.922)" gradientUnits="userSpaceOnUse"><stop offset="0%" stop-color="#fff"/><stop offset="100%" stop-opacity=".204" stop-color="#fff"/></radialGradient><path d="M119.53 53.922l-16.438 16.462H53.039C16.724 70.384 13 74.112 13 110.427v2.06c0-36.316 3.724-40.046 40.039-40.046h50.053l16.438-16.46h83.431c36.315 0 40.039 3.727 40.039 40.043v-2.057c0-36.316-3.724-40.045-40.039-40.045H119.53z" fill="url(#c)"/></g><path d="M243 167.096l-65.715 65.845h25.676c36.315 0 40.039-3.727 40.039-40.043v-25.802z" fill="#FFF" opacity=".1"/><path d="M13 192.898v2.057C13 231.271 16.724 235 53.039 235h149.922c36.315 0 40.039-3.729 40.039-40.045v-2.057c0 36.316-3.724 40.043-40.039 40.043H53.039c-36.315 0-40.039-3.727-40.039-40.043z" opacity=".2"/><path d="M180.432 212.932a4.959 4.959 0 0 1-2.982-1.564c-1.78-1.91-4.71-7.524-7.112-13.632-1.35-3.43-3.932-10.982-3.932-11.498 0-.162 1.704-1.288 3.786-2.5l3.786-2.204.594.556c2.352 2.208 9.122 12.322 13.07 19.524 1.58 2.88 1.738 3.29 1.732 4.478-.008 1.582-.506 2.686-1.914 4.252-1.686 1.876-4.594 2.946-7.028 2.588zm-112.522-1.88c.072-.194 1.224-5.39 2.562-11.55 1.336-6.158 2.46-11.234 2.496-11.28.12-.154 12.218 8.332 12.214 8.57 0 .13-3.498 3.134-7.77 6.678-9.62 7.98-9.66 8.012-9.502 7.582zm12.812-21.728c-3.37-2.33-6.102-4.336-6.07-4.456.08-.286 29.038-49.306 29.276-49.554.132-.138 12.786 7.818 13.378 8.41.128.128-29.98 49.728-30.22 49.784-.128.03-2.992-1.852-6.364-4.184zm79.48-12.954c-2.312-3.896-4.168-7.106-4.126-7.136.412-.29 9.168-5.324 9.262-5.324.144 0 7.496 14.64 7.388 14.716-.948.662-7.964 4.846-8.114 4.838-.114-.006-2.1-3.198-4.41-7.094zm-95.032-.734c-.08-.68-.114-6.166-.076-12.19l.072-10.952 12.138.076c6.678.036 12.168.098 12.202.132.034.03-3.178 5.486-7.14 12.118l-7.202 12.056h-9.848l-.146-1.24zm36.414.888c0-.06 3.296-5.524 7.326-12.138l7.328-12.026H142.248l6.952 11.578c3.824 6.368 7.088 11.832 7.254 12.14l.302.56H129.17c-15.172 0-27.586-.054-27.586-.114zm70.962-5.13c-1.4-2.886-4.036-8.296-5.856-12.022l-3.312-6.778h8.998c4.95 0 11.146-.068 13.772-.156l4.774-.154v24.354h-15.83l-2.546-5.244zm-20.09-7.78c-5.33-8.396-10.76-18.262-17.284-31.408-5.176-10.43-10.158-21.212-12.214-26.436-2.978-7.568-3.69-12.274-1.922-12.716 2.828-.71 8.362 5.712 16.242 18.846 6.172 10.288 16.048 28.266 23.582 42.934 1.4 2.722 2.794 5.39 3.098 5.928l.554.98-4.696 2.734c-2.582 1.502-4.782 2.734-4.888 2.734-.104 0-1.218-1.618-2.472-3.596zm-40.802-26.02l-6.548-4.316.618-.98c.34-.538 2.056-3.272 3.812-6.076a752.93 752.93 0 0 1 3.254-5.17c.034-.038 2.982 1.85 6.554 4.2l6.494 4.276-.968 1.574c-.53.866-2.13 3.484-3.552 5.818-1.424 2.332-2.708 4.41-2.852 4.616-.228.324-1.162-.216-6.812-3.942zm8.356-14.016c-3.392-2.216-6.17-4.134-6.17-4.262 0-.936 2.806-3.536 4.188-3.884 2.276-.57 6.006.888 8.086 3.162 1.606 1.758 1.958 2.618 1.808 4.418-.114 1.358-1.22 4.596-1.572 4.596-.094 0-2.946-1.812-6.34-4.03z" fill="#FFF" fill-opacity=".62"/></svg>

<?xml version="1.0" standalone="no"?><!-- Generator: Gravit.io -->
<svg xmlns="http://www.w3.org/2000/svg" 
  xmlns:xlink="http://www.w3.org/1999/xlink" style="isolation:isolate" viewBox="0 0 256 256" width="256" height="256">
  <switch>
    <g>
      <g id="folder">
        <path d=" M 53.039 21 C 16.724 21 13 23.055 13 59.371 L 13 111.538 L 243 111.538 L 243 79.563 C 243 43.247 239.276 37.461 202.961 37.461 L 113.625 37.461 L 97.198 21 L 53.039 21 Z " id="orange" fill="#1463A5"/>
        <path d=" M 53.039 70.384 C 16.722 70.384 13 74.114 13 110.429 L 13 194.953 C 13 231.269 16.722 235 53.039 235 L 202.961 235 C 239.278 235 243 231.269 243 194.953 L 243 93.969 C 243 57.653 239.278 53.922 202.961 53.922 L 119.53 53.922 L 103.092 70.384 L 53.039 70.384 Z " id="change-color-easy" fill="#37A6E6"/>
        <linearGradient id="_lgradient_5" x1="0" y1="0.5" x2="2.83276944882399e-16" y2="-0.5" gradientTransform="matrix(230,0,0,181.078,13,53.922)" gradientUnits="userSpaceOnUse">
          <stop offset="0%" stop-opacity="0.07" style="stop-color:rgb(255,255,255)"/>
          <stop offset="67.28219512106674%" stop-opacity="0" style="stop-color:rgb(252,239,232)"/>
        </linearGradient>
        <path d=" M 53.039 70.384 C 16.722 70.384 13 74.114 13 110.429 L 13 194.953 C 13 231.269 16.722 235 53.039 235 L 202.961 235 C 239.278 235 243 231.269 243 194.953 L 243 93.969 C 243 57.653 239.278 53.922 202.961 53.922 L 119.53 53.922 L 103.092 70.384 L 53.039 70.384 Z " id="gradient white" fill="url(#_lgradient_5)"/>
        <g opacity="0.4">
          <radialGradient id="_rgradient_9" fx="0.5000000213726793" fy="0.13577386516315215" cx="0.5" cy="0.5" r="0.27154159375000003" gradientTransform="matrix(230,0,0,60.62,13,21)" gradientUnits="userSpaceOnUse">
            <stop offset="0%" stop-opacity="1" style="stop-color:rgb(255,255,255)"/>
            <stop offset="100%" stop-opacity="0.20392157" style="stop-color:rgb(255,255,255)"/>
          </radialGradient>
          <path d=" M 53.039 21 C 16.724 21 13 23.055 13 59.371 L 13 61.43 C 13 25.114 16.724 23.057 53.039 23.057 L 97.198 23.057 L 113.625 39.518 L 202.961 39.518 C 239.276 39.518 243 45.304 243 81.62 L 243 79.563 C 243 43.247 239.276 37.461 202.961 37.461 L 113.625 37.461 L 97.198 21 L 53.039 21 Z " id="white" fill="url(#_rgradient_9)"/>
        </g>
        <g opacity="0.4">
          <radialGradient id="_rgradient_10" fx="0.48214287810452355" fy="0.2108154047287485" cx="0.5" cy="0.5" r="0.27154159375" gradientTransform="matrix(230,0,0,58.565,13,53.922)" gradientUnits="userSpaceOnUse">
            <stop offset="0%" stop-opacity="1" style="stop-color:rgb(255,255,255)"/>
            <stop offset="100%" stop-opacity="0.20392157" style="stop-color:rgb(255,255,255)"/>
          </radialGradient>
          <path d=" M 119.53 53.922 L 103.092 70.384 L 53.039 70.384 C 16.724 70.384 13 74.112 13 110.427 L 13 112.487 C 13 76.171 16.724 72.441 53.039 72.441 L 103.092 72.441 L 119.53 55.981 L 202.961 55.981 C 239.276 55.981 243 59.708 243 96.024 L 243 93.967 C 243 57.651 239.276 53.922 202.961 53.922 L 119.53 53.922 Z " id="white" fill="url(#_rgradient_10)"/>
        </g>
        <g opacity="0.1">
          <path d=" M 243 167.096 L 177.285 232.941 L 202.961 232.941 C 239.276 232.941 243 229.214 243 192.898 L 243 167.096 Z " id="white" fill="rgb(255,255,255)"/>
        </g>
        <g opacity="0.2">
          <path d=" M 13 192.898 L 13 194.955 C 13 231.271 16.724 235 53.039 235 L 202.961 235 C 239.276 235 243 231.271 243 194.955 L 243 192.898 C 243 229.214 239.276 232.941 202.961 232.941 L 53.039 232.941 C 16.724 232.941 13 229.214 13 192.898 Z " id="dark" fill="rgb(0,0,0)"/>
        </g>
      </g>
      <path d=" M 180.432 212.932 C 179.256 212.758 178.258 212.236 177.45 211.368 C 175.67 209.458 172.74 203.844 170.338 197.736 C 168.988 194.306 166.406 186.754 166.406 186.238 C 166.406 186.076 168.11 184.95 170.192 183.738 L 173.978 181.534 L 174.572 182.09 C 176.924 184.298 183.694 194.412 187.642 201.614 C 189.222 204.494 189.38 204.904 189.374 206.092 C 189.366 207.674 188.868 208.778 187.46 210.344 C 185.774 212.22 182.866 213.29 180.432 212.932 L 180.432 212.932 Z  M 67.91 211.052 C 67.982 210.858 69.134 205.662 70.472 199.502 C 71.808 193.344 72.932 188.268 72.968 188.222 C 73.088 188.068 85.186 196.554 85.182 196.792 C 85.182 196.922 81.684 199.926 77.412 203.47 C 67.792 211.45 67.752 211.482 67.91 211.052 Z  M 80.722 189.324 C 77.352 186.994 74.62 184.988 74.652 184.868 C 74.732 184.582 103.69 135.562 103.928 135.314 C 104.06 135.176 116.714 143.132 117.306 143.724 C 117.434 143.852 87.326 193.452 87.086 193.508 C 86.958 193.538 84.094 191.656 80.722 189.324 Z  M 160.202 176.37 C 157.89 172.474 156.034 169.264 156.076 169.234 C 156.488 168.944 165.244 163.91 165.338 163.91 C 165.482 163.91 172.834 178.55 172.726 178.626 C 171.778 179.288 164.762 183.472 164.612 183.464 C 164.498 183.458 162.512 180.266 160.202 176.37 L 160.202 176.37 Z  M 65.17 175.636 C 65.09 174.956 65.056 169.47 65.094 163.446 L 65.166 152.494 L 77.304 152.57 C 83.982 152.606 89.472 152.668 89.506 152.702 C 89.54 152.732 86.328 158.188 82.366 164.82 L 75.164 176.876 L 70.24 176.876 L 65.316 176.876 L 65.17 175.636 Z  M 101.584 176.524 C 101.584 176.464 104.88 171 108.91 164.386 L 116.238 152.36 L 129.244 152.36 L 142.248 152.36 L 149.2 163.938 C 153.024 170.306 156.288 175.77 156.454 176.078 L 156.756 176.638 L 129.17 176.638 C 113.998 176.638 101.584 176.584 101.584 176.524 L 101.584 176.524 Z  M 172.546 171.394 C 171.146 168.508 168.51 163.098 166.69 159.372 L 163.378 152.594 L 172.376 152.594 C 177.326 152.594 183.522 152.526 186.148 152.438 L 190.922 152.284 L 190.922 164.462 L 190.922 176.638 L 183.006 176.638 L 175.092 176.638 L 172.546 171.394 L 172.546 171.394 Z  M 152.456 163.614 C 147.126 155.218 141.696 145.352 135.172 132.206 C 129.996 121.776 125.014 110.994 122.958 105.77 C 119.98 98.202 119.268 93.496 121.036 93.054 C 123.864 92.344 129.398 98.766 137.278 111.9 C 143.45 122.188 153.326 140.166 160.86 154.834 C 162.26 157.556 163.654 160.224 163.958 160.762 L 164.512 161.742 L 159.816 164.476 C 157.234 165.978 155.034 167.21 154.928 167.21 C 154.824 167.21 153.71 165.592 152.456 163.614 L 152.456 163.614 Z  M 111.654 137.594 L 105.106 133.278 L 105.724 132.298 C 106.064 131.76 107.78 129.026 109.536 126.222 C 111.292 123.42 112.756 121.092 112.79 121.052 C 112.824 121.014 115.772 122.902 119.344 125.252 L 125.838 129.528 L 124.87 131.102 C 124.34 131.968 122.74 134.586 121.318 136.92 C 119.894 139.252 118.61 141.33 118.466 141.536 C 118.238 141.86 117.304 141.32 111.654 137.594 L 111.654 137.594 Z  M 120.01 123.578 C 116.618 121.362 113.84 119.444 113.84 119.316 C 113.84 118.38 116.646 115.78 118.028 115.432 C 120.304 114.862 124.034 116.32 126.114 118.594 C 127.72 120.352 128.072 121.212 127.922 123.012 C 127.808 124.37 126.702 127.608 126.35 127.608 C 126.256 127.608 123.404 125.796 120.01 123.578 L 120.01 123.578 Z " id="application" fill="#FFFFFF" fill-opacity="0.62"/>
    </g>
  </switch>
</svg>
